X:368
T: Lieb und Leid (96a), S. 244
N: T0257
O: Luxemburg
S: Singendes Volk, Esch-Alzette 1937 posth.]
N: Savelborn, fff Leny Goerens, 6.2.1916
N: Straen, fff Witry, 29.2.1933
R: Liebeslieder]
M: 6/8
L: 1/16
K: C
G2 | c4E2A4G2 | G2F4z4
Bc | d4F2G4F2 | E6z4
G2 | e4d2c4B2 | B2A4z4
AA | G4c2c4G2 | c4d2e4
G2 | e4d2c4B2 | B2A4z4
AA | G4c2e4d2 | c6z4

